images/“.svg

<svg width="80" height="64" viewBox="0 0 80 64" fill="none" xmlns="http://www.w3.org/2000/svg">
<path d="M22.0513 36.5714C26.1538 36.5714 29.4017 37.8546 31.7949 40.4211C34.359 42.8271 35.6411 46.0351 35.6411 50.0451C35.6411 54.3759 34.1026 57.8246 31.0257 60.391C28.1197 62.797 24.1026 64 18.9744 64C12.9915 64 8.29064 61.8346 4.87183 57.5038C1.62397 53.1729 0 46.9975 0 38.9774C0 31.7594 1.70941 25.1028 5.12821 19.0075C8.54702 12.7519 13.6752 6.49623 20.5129 0.240597C20.6838 0.0801979 20.9402 0 21.282 0C21.7949 0 22.2222 0.2406 22.5641 0.721797C22.906 1.203 22.906 1.604 22.5641 1.9248C14.188 9.94485 9.99999 19.4085 9.99999 30.3158C9.99999 34.807 10.8547 38.0952 12.5641 40.1805C14.1026 37.7744 17.265 36.5714 22.0513 36.5714ZM66.4103 36.5714C70.5128 36.5714 73.7607 37.8546 76.1538 40.4211C78.7179 42.8271 80 46.0351 80 50.0451C80 54.3759 78.4615 57.8246 75.3846 60.391C72.4786 62.797 68.4616 64 63.3334 64C57.3505 64 52.6496 61.8346 49.2308 57.5038C45.9829 53.1729 44.359 46.9975 44.359 38.9774C44.359 31.7594 46.0684 25.1028 49.4872 19.0075C52.906 12.7519 58.0342 6.49623 64.8718 0.240597C65.0427 0.0801979 65.2992 0 65.641 0C66.1539 0 66.5812 0.2406 66.9231 0.721797C67.265 1.203 67.265 1.604 66.9231 1.9248C58.547 9.94485 54.359 19.4085 54.359 30.3158C54.359 34.807 55.2137 38.0952 56.9231 40.1805C58.4616 37.7744 61.624 36.5714 66.4103 36.5714Z" fill="white"/>
</svg>

<svg width="80" height="64" fill="none" xmlns="http://www.w3.org/2000/svg"><path d="M22.051 36.571c4.103 0 7.35 1.284 9.744 3.85 2.564 2.406 3.846 5.614 3.846 9.624 0 4.33-1.538 7.78-4.615 10.346C28.12 62.797 24.103 64 18.974 64c-5.982 0-10.683-2.165-14.102-6.496C1.624 53.173 0 46.998 0 38.977c0-7.218 1.71-13.874 5.128-19.97C8.547 12.753 13.675 6.498 20.513.242c.17-.16.427-.241.769-.241.513 0 .94.24 1.282.722.342.481.342.882 0 1.203C14.188 9.945 10 19.408 10 30.315c0 4.492.855 7.78 2.564 9.866 1.539-2.407 4.701-3.61 9.487-3.61Zm44.36 0c4.102 0 7.35 1.284 9.743 3.85C78.718 42.827 80 46.035 80 50.045c0 4.33-1.538 7.78-4.615 10.346C72.479 62.797 68.462 64 63.333 64c-5.983 0-10.683-2.165-14.102-6.496-3.248-4.331-4.872-10.506-4.872-18.527 0-7.218 1.71-13.874 5.128-19.97 3.419-6.255 8.547-12.51 15.385-18.766.17-.16.427-.241.769-.241.513 0 .94.24 1.282.722.342.481.342.882 0 1.203-8.376 8.02-12.564 17.483-12.564 28.39 0 4.492.855 7.78 2.564 9.866 1.539-2.407 4.701-3.61 9.487-3.61Z" fill="#fff"/></svg>
